X: 104
T: Miss Mary Ann Johnston's Favourite
R: reel, march
Q: "Slowish"
B: William Shepherd "1st Collection" 1793 p.10 #4
F: http://imslp.org/wiki/File:PMLP73094-Shepherd_Collections_HMT.pdf
C: William Shepherd (17??-1812)
Z: 2012 John Chambers <jc:trillian.mit.edu>
M: 2/4
L: 1/16
K: Eb
{d}e2 |\
E2E2E2E2 | E3F AGFE |\
D2[F2B,2][F2B,2][F2B,2] | [F3B,3]GA2F2 |\
B3TcB2G2 | E2EF E2B,2 |\
C3F DEFD | {F}E6 :|
|: B2 |\
e3eB2G2 | c3cA2F2 |\
B3BG2E2 | DEFD {E}D2B,2 |\
[1 e3eB2G2 | c3cA2F2 |
C3E DEFD | E4 E2 :|\
[2 C3E[D3B,3]F | E3GF3A |\
G3B [DB,]EFD | E4 E2 |]
